X: 1
T: Bourr\'ee des Couets
O: France, Auvergne, Château sur Allier
Z: 2011 John Chambers <jc:trillian.mit.edu>
F: http://libtrad.eu/Bourree_des_Couets.kml
S: Mike Hirst, abcusers list, 2011-12-20
M: 2/4
L: 1/8
K: G
c3 B | G2 G2 | Bd  cB | A>B AA |\
c3 B | G2 G2 | B>d cB | A4     ||
c3 B | G2 G2 | FA  BA | G>A GG |
c3 B | G2 G2 | F>A BA | G4     |]
